X: 13807
T: Four Courts, The
R: reel
M: 4/4
K: Dmixolydian
AD (3DDD ADBD|AD (3DDD ~G2 FG|AD (3DDD BG ~G2|BdcA ~G2 FG:|
(3EEE cE dEcE|(3DDD AD BDAD|(3EEE cE dEcE|(3Bcd cA ~G2 FG|
(3EEE cE dEcE|(3DDD AD BDAD|(3EEE cE dEcE|dcAF ~
G2 FG|
~A3 d ~B3 d|~A3F ~G2 FG|~A3 d ~B3 A|GBdB GBdB|
~A3 d ~B3 d|~A3F ~G2 FG|Ad fe dcAc|dcAF ~G2 FG|

